images/logo5.svg

<svg xmlns="http://www.w3.org/2000/svg" width="104" height="56" fill="none"><path fill="#8E8F99" d="M26.7919 44.373c.2455.2735.3762.6161.3694.9677a1.3977 1.3977 0 0 1-.1315.6698c-.0991.2116-.2498.4004-.4409.5525-.4769.3242-1.0676.4827-1.6639.4463H22v-6.1324h2.8651c.5656-.0338 1.1267.1102 1.5874.4075.185.1394.3315.3156.428.5147.0964.1991.1401.4157.1277.6326.0168.3383-.1012.6709-.3328.9377-.2223.2437-.5295.4126-.8718.4794.388.0637.7383.2495.9883.5242Zm-3.4309-.9257h1.2246c.2783.0186.5548-.0538.7787-.2037a.7313.7313 0 0 0 .2091-.272.6616.6616 0 0 0 .0538-.3271.6858.6858 0 0 0-.055-.3259.7533.7533 0 0 0-.2046-.2733c-.2306-.1542-.5156-.2276-.8019-.2067H23.361v1.6087Zm2.1231 2.3517a.7702.7702 0 0 0 .2258-.281.6938.6938 0 0 0 .0637-.3421.7043.7043 0 0 0-.0667-.3456.781.781 0 0 0-.2295-.2835c-.2395-.1599-.5342-.2384-.8319-.2217H23.361v1.6866h1.3012c.2928.0152.5827-.0598.8219-.2127ZM32.6487 47.0093l-1.594-2.3966h-.599v2.3966h-1.371v-6.1324h2.5956c.6543-.0411 1.3011.1455 1.807.5213.3628.3328.5816.7714.617 1.2366.0354.4653-.115.9266-.424 1.3009-.3203.3302-.7577.5504-1.2379.6231l1.6971 2.4505h-1.4908Zm-2.193-3.2324h1.1215c.7786 0 1.168-.3096 1.168-.9287a.831.831 0 0 0-.0627-.3716.908.908 0 0 0-.2235-.3175c-.2461-.1842-.563-.2736-.8818-.2486h-1.1348l.0133 1.8664ZM40.1426 45.7752h-2.732l-.4826 1.2342h-1.4375l2.5091-6.0635h1.554l2.4991 6.0635h-1.4376l-.4725-1.2342Zm-.366-.9287-.9984-2.5884-.9983 2.5884h1.9967ZM49.5234 47.0094h-1.361l-3.0515-4.1702v4.1702h-1.3577V40.877h1.3577l3.0515 4.1941V40.877h1.361v6.1324ZM57.2903 45.5415c-.2814.463-.7102.8396-1.2313 1.0814-.5924.2694-1.2499.4022-1.9134.3865H51.723V40.877h2.4226c.6623-.0156 1.319.114 1.9134.3775.521.2363.9502.6092 1.2313 1.0695.2801.4987.4261 1.0498.4261 1.6087s-.146 1.11-.4261 1.6088Zm-1.5574-.1468c.3884-.4074.602-.9266.602-1.4635s-.2136-1.056-.602-1.4634c-.4695-.369-1.0818-.5564-1.7038-.5213h-.945v3.9694h.945c.622.0351 1.2343-.1522 1.7038-.5212ZM40.9945 6.7667s17.5669 5.9707 17.1942 14.6106v14.6135s-17.5536-5.9736-17.1875-14.6135l-.0067-14.6106ZM73.8389 32.5694c3.3176-2.0555 7.1552-3.3286 11.1611-3.7028V24.292c-4.6158 1.6015-8.5314 4.5055-11.1611 8.2774Z"/><path fill="#8E8F99" d="M71.8456 33.9478c2.7155-4.9225 7.423-8.721 13.1544-10.6142V10.1521s-25.0177 8.5051-24.4886 20.8088v20.8059s1.1148-.3805 2.8685-1.0935c0-.665 0-1.3361.0799-2.0102.5178-5.712 3.5341-11.005 8.3858-14.7153Z"/><path fill="#8E8F99" d="M69.4663 41.6769a19.5695 19.5695 0 0 1 .8752-4.26c-3.021 3.2042-4.8505 7.1802-5.2311 11.369-.0366.3955-.0566.7909-.0666 1.1984 1.421-.6142 3.0748-1.3811 4.8119-2.2828a19.4295 19.4295 0 0 1-.3894-6.0246ZM70.4612 41.7519a18.5672 18.5672 0 0 0 .3095 5.4553c6.8351-3.6818 14.5154-9.3709 14.2193-16.2462v-.5992c-4.8834.4919-9.4523 2.4138-13.0047 5.4704-.8317 1.8941-1.3454 3.8892-1.5241 5.9197Z"/></svg>

<svg width="104" height="56" viewBox="0 0 104 56" fill="none" xmlns="http://www.w3.org/2000/svg">
<path d="M26.7919 44.373C27.0373 44.6465 27.1681 44.9891 27.1612 45.3407C27.1738 45.57 27.1288 45.7989 27.0298 46.0105C26.9307 46.2221 26.78 46.4109 26.5889 46.563C26.112 46.8872 25.5212 47.0457 24.925 47.0093H22V40.8769H24.8651C25.4307 40.8431 25.9918 40.9871 26.4524 41.2844C26.6375 41.4238 26.784 41.6 26.8804 41.7991C26.9769 41.9982 27.0206 42.2148 27.0082 42.4317C27.025 42.77 26.907 43.1026 26.6754 43.3694C26.4531 43.6131 26.1459 43.782 25.8035 43.8488C26.1916 43.9125 26.5419 44.0983 26.7919 44.373ZM23.361 43.4473H24.5856C24.8639 43.4659 25.1403 43.3935 25.3643 43.2436C25.4562 43.1686 25.5278 43.0755 25.5734 42.9716C25.6189 42.8677 25.6374 42.7558 25.6272 42.6445C25.6358 42.5335 25.617 42.4222 25.5721 42.3186C25.5273 42.215 25.4574 42.1217 25.3676 42.0453C25.137 41.8911 24.852 41.8177 24.5656 41.8386H23.361V43.4473ZM25.4841 45.799C25.5824 45.7222 25.6596 45.6261 25.7098 45.518C25.7601 45.4099 25.7819 45.2928 25.7736 45.1759C25.7811 45.0576 25.7583 44.9394 25.7069 44.8303C25.6556 44.7212 25.5771 44.6242 25.4774 44.5468C25.2378 44.3869 24.9432 44.3084 24.6455 44.3251H23.361V46.0117H24.6621C24.955 46.0269 25.2449 45.9519 25.4841 45.799Z" fill="#8E8F99"/>
<path d="M32.6487 47.0093L31.0547 44.6127H30.4557V47.0093H29.0847V40.8769H31.6803C32.3346 40.8358 32.9814 41.0224 33.4872 41.3982C33.8501 41.731 34.0689 42.1696 34.1043 42.6348C34.1397 43.1001 33.9893 43.5614 33.6803 43.9357C33.36 44.2659 32.9226 44.4861 32.4424 44.5588L34.1395 47.0093H32.6487ZM30.4557 43.7769H31.5771C32.3558 43.7769 32.7452 43.4673 32.7452 42.8482C32.7531 42.7217 32.7318 42.5952 32.6825 42.4766C32.6332 42.358 32.5571 42.2499 32.459 42.1591C32.2129 41.9749 31.896 41.8855 31.5771 41.9105H30.4424L30.4557 43.7769Z" fill="#8E8F99"/>
<path d="M40.1426 45.7752H37.4105L36.928 47.0094H35.4905L37.9995 40.9459H39.5536L42.0527 47.0094H40.6151L40.1426 45.7752ZM39.7765 44.8465L38.7782 42.2581L37.7799 44.8465H39.7765Z" fill="#8E8F99"/>
<path d="M49.5234 47.0094H48.1624L45.1109 42.8392V47.0094H43.7532V40.877H45.1109L48.1624 45.0711V40.877H49.5234V47.0094Z" fill="#8E8F99"/>
<path d="M57.2903 45.5415C57.0089 46.0045 56.5801 46.3811 56.059 46.6229C55.4665 46.8923 54.8091 47.0251 54.1456 47.0094H51.723V40.877H54.1456C54.8079 40.8614 55.4646 40.991 56.059 41.2545C56.58 41.4908 57.0092 41.8637 57.2903 42.324C57.5704 42.8227 57.7164 43.3738 57.7164 43.9327C57.7164 44.4916 57.5704 45.0427 57.2903 45.5415ZM55.7329 45.3947C56.1213 44.9873 56.3349 44.4681 56.3349 43.9312C56.3349 43.3943 56.1213 42.8752 55.7329 42.4678C55.2634 42.0988 54.6511 41.9114 54.0291 41.9465H53.084V45.9159H54.0291C54.6511 45.951 55.2634 45.7637 55.7329 45.3947Z" fill="#8E8F99"/>
<path d="M40.9945 6.76672C40.9945 6.76672 58.5614 12.7374 58.1887 21.3773V35.9908C58.1887 35.9908 40.6351 30.0172 41.0012 21.3773L40.9945 6.76672Z" fill="#8E8F99"/>
<path d="M73.8389 32.5694C77.1565 30.5139 80.9941 29.2408 85 28.8666V24.292C80.3842 25.8935 76.4686 28.7975 73.8389 32.5694Z" fill="#8E8F99"/>
<path d="M71.8456 33.9478C74.561 29.0253 79.2686 25.2268 85 23.3336V10.1521C85 10.1521 59.9823 18.6572 60.5114 30.9609V51.7668C60.5114 51.7668 61.6262 51.3863 63.3799 50.6733C63.3799 50.0083 63.3799 49.3372 63.4598 48.6631C63.9775 42.9511 66.9939 37.6581 71.8456 33.9478Z" fill="#8E8F99"/>
<path d="M69.4663 41.6769C69.5977 40.234 69.891 38.8067 70.3415 37.4169C67.3205 40.6211 65.491 44.5971 65.1104 48.7859C65.0738 49.1814 65.0538 49.5768 65.0438 49.9843C66.4647 49.3701 68.1186 48.6032 69.8557 47.7015C69.4124 45.7197 69.2813 43.6916 69.4663 41.6769Z" fill="#8E8F99"/>
<path d="M70.4612 41.7519C70.2947 43.5746 70.3987 45.4092 70.7707 47.2072C77.6058 43.5254 85.2861 37.8363 84.99 30.961V30.3618C80.1065 30.8537 75.5376 32.7756 71.9853 35.8321C71.1536 37.7263 70.6399 39.7214 70.4612 41.7519Z" fill="#8E8F99"/>
</svg>
